X:1
T:Title
%%score { ( 1 4 ) | ( 2 3 ) }
L:1/8
M:3/4
K:G
V:1 treble nm="Grand Piano"
V:4 treble 
V:2 treble 
V:3 treble 
V:1
 z2 z2[Q:1/4=106] B2 | B2 c2 d2 | A4 B2 | c4 z2 | [DGB]4 [GB]2 | D2- [DB]2 [G,^CG]2 | F2 z2 z2 | %7
 z2 z2 A2 | F2- [FB]2 [CFA]2 | [B,G]4 [DGB]2 | G2- [Gc]2 [Gd]2 | [Ge]4 e2 | A2 B2 A2 | d2 F2 G2 | %14
 c4 B2 | G2 z2 z2 | %16
 G4 z2[Q:1/4=104][Q:1/4=103][Q:1/4=101][Q:1/4=100][Q:1/4=98][Q:1/4=97][Q:1/4=95][Q:1/4=94][Q:1/4=92][Q:1/4=90][Q:1/4=89][Q:1/4=87][Q:1/4=86][Q:1/4=84][Q:1/4=83][Q:1/4=81] | %17
 [DG]4 z2 |[M:2/4] [B,DG]4 |] %19
V:2
 z2 z2 [G,DG]2 | [DG]4 z2 | [CDF]4 [B,DG]2 | [CE]2 z2 z2 | G,4 G,2 | F,2 G,2 E,2 | z2 G2 A,,2 | %7
 [D,F,]4 [F,D]A, | z2 D2 D,2 | G,4 G,2 | G,=F, [E,C]2 [D,B,]2 | [C,C]4[K:treble] [CEG]2 | %12
 [CDF]4 [CDF]2 | [B,DG]2 [A,CD]2[K:bass] [G,B,D]2 | [E,G,C]2 [F,A,]2 .[G,B,G]2 | z2 F2 B,,2 | %16
 z2 B,2 ^C,2 | z2 A,2 D,2 |[M:2/4] G,4 |] %19
V:3
 x6 | G,2 A,2 [B,DG]2 | x6 | A,2- [A,E]2 D,2 | x6 | x6 | A,,4 z2 | z2 z2 D,2 | D,4 z2 | x6 | x6 | %11
 x4[K:treble] x2 | x6 | x4[K:bass] x2 | x6 | D,4 z2 | E,4 z2 | D,4 z2 |[M:2/4] x4 |] %19
V:4
 x6 | x6 | x6 | z2 G2 [DFc]2 | x6 | [A,A]2 z2 z2 | [A,D]4 [G,^CE]2 | D4 z F | [CA]2 z2 z2 | x6 | %10
 [DB]2 z2 z2 | x6 | x6 | x6 | z2 D2 z C | [DA]4 [^DFB]2 | E2 E2 [_B,EG]2 | B,2 z2 [CDF]2 | %18
[M:2/4] x4 |] %19

